X: 1292
T: Woo'd and Married and a'
%R: slip-jig, air
B: Niel Gow & Sons "Complete Repository" v.1 p.29 #2
Z: 2021 John Chambers <jc:trillian.mit.edu>
M: 9/8
L: 1/8
K: F
% - - - - - - - - - -
% Voice 1 formatted for compactness and proofreading.
V: 1 staves=2
f |\
{d}c2B ABG F2B | (A/B/c).c cdA ~c2f | {d}c2B ABG FGA  | D2d de^c ~d2 :| f | cde fgf edc | (A/B/c).c cdA Tc2d |
cde fgf edc | A2d- d.e.^c ~d2f || cde fga efg | (A/B/c).A fcA c2f | Tc>dB ABG FGA | D2d de^c ~d2 |]
% - - - - - - - - - -
% Voice 2 preserves the book's staff layout.
V: 2 clef=bass middle=d
z |\
f3 c3 F3 | A3 f3 F3 | f3 c3 F3 | d3 A3 D2 :| z | f3 f3 c3 | A3 f3 F3 |
f3 f3 e3 | d3 A3 D3 || F3 f3 c3 | f3 c3 F3 | f3 c3 f2e | d3 A3 D2 |]
